dist/flags/s/780.svg

<svg width="16" height="12" viewBox="0 0 16 12" fill="none" xmlns="http://www.w3.org/2000/svg">
<mask id="mask0" mask-type="alpha" maskUnits="userSpaceOnUse" x="0" y="0" width="16" height="12">
<rect width="16" height="12" fill="white"/>
</mask>
<g mask="url(#mask0)">
<path fill-rule="evenodd" clip-rule="evenodd" d="M0 0V12H16V0H0Z" fill="#E31D1C"/>
<mask id="mask1" mask-type="alpha" maskUnits="userSpaceOnUse" x="0" y="0" width="16" height="12">
<path fill-rule="evenodd" clip-rule="evenodd" d="M0 0V12H16V0H0Z" fill="white"/>
</mask>
<g mask="url(#mask1)">
<path d="M14.774 14.7409L14.5091 14.9576L14.2752 14.7078L-0.896852 -1.49154L-1.16443 -1.77724L-0.861426 -2.02505L0.686749 -3.29121L0.951655 -3.50786L1.18559 -3.25809L16.3576 12.9413L16.6252 13.227L16.3222 13.4748L14.774 14.7409Z" fill="#272727" stroke="#F7FCFF" stroke-width="0.732"/>
</g>
</g>
</svg>

<svg width="16" height="12" fill="none" xmlns="http://www.w3.org/2000/svg">
  <mask id="a" maskUnits="userSpaceOnUse" x="0" y="0" width="16" height="12">
    <path fill="#fff" d="M0 0h16v12H0z"/>
  </mask>
  <g mask="url(#a)">
    <path fill-rule="evenodd" clip-rule="evenodd" d="M0 0v12h16V0H0z" fill="#E31D1C"/>
    <mask id="b" maskUnits="userSpaceOnUse" x="0" y="0" width="16" height="12">
      <path fill-rule="evenodd" clip-rule="evenodd" d="M0 0v12h16V0H0z" fill="#fff"/>
    </mask>
    <g mask="url(#b)">
      <path d="M14.774 14.74l-.265.218-.234-.25-15.172-16.2-.267-.285.303-.248L.687-3.291l.265-.217.234.25 15.172 16.2.267.285-.303.248-1.548 1.266z" fill="#272727" stroke="#F7FCFF" stroke-width=".732"/>
    </g>
  </g>
</svg>
